packages/sources/icons/src/vitamix/direction-line.svg

<svg width="16" height="16" viewBox="0 0 16 16" xmlns="http://www.w3.org/2000/svg"><path fill-rule="evenodd" clip-rule="evenodd" d="M8.47138 0.92865L15.0714 7.52865C15.3316 7.78898 15.3316 8.21098 15.0714 8.47132L8.47138 15.0713C8.21104 15.3316 7.78904 15.3316 7.52871 15.0713L0.928711 8.47132C0.668457 8.21098 0.668457 7.78898 0.928711 7.52865L7.52871 0.92865C7.78904 0.668396 8.21104 0.668396 8.47138 0.92865ZM8.00012 2.34331L2.34346 7.99998L8.00012 13.6566L13.6568 7.99998L8.00012 2.34331ZM8.66667 4.99999V6.66665H6.00001C5.63182 6.66665 5.33334 6.96513 5.33334 7.33332V9.99999H6.66667V7.99999H8.66667V9.66665L11 7.33332L8.66667 4.99999Z"/></svg>

<svg width="16" height="16" xmlns="http://www.w3.org/2000/svg"><path fill-rule="evenodd" clip-rule="evenodd" d="m8.471.929 6.6 6.6c.26.26.26.682 0 .942l-6.6 6.6a.667.667 0 0 1-.942 0l-6.6-6.6a.667.667 0 0 1 0-.942l6.6-6.6c.26-.26.682-.26.942 0Zm-.47 1.414L2.342 8 8 13.657 13.657 8 8 2.343ZM8.666 5v1.667H6a.667.667 0 0 0-.667.666V10h1.334V8h2v1.667L11 7.333 8.667 5Z"/></svg>
